X: 7
T: Man Of Aran
R: reel
M: 4/4
L: 1/8
K: Bmin
|:FBfe dB B2|e3d cA A2|FBfe dB B2|cedc dB B2|
fBeB dB B2|e3d cA A2|(3Bcd ce dfeg|[1f3e dBBA:|[2f3e dBBc||
|Adfd Adfd|cdec fcec|dAFD FAdA|cedc dBBc|
defd Adfd|cdec fcec|(3Bcd ce dfeg|[1f3e dBBc:|[2f3e dBBA|]
|df f2 df f2|ce e2 ce e2|df f2 df f2|c2ec dB B2|
dfaf dfaf|cege cege|dfeg fB B2| f3e fedc:||


Tune 973	Setting 14171

